X:1
T:Connelly's Ale -- Jig
R:jig
B:Ryan's Mammoth Collection
N: 111 622
Z: Contributed by Ray Davies,  ray:davies99.freeserve.co.uk
M:6/8
L:1/8
K:G
D|\
GAB BAB | GBd def | gfg edB | BAA A2B |
GAB BAB | GBd def | gfe dBd | BGG G2:|
|:B|\
def gfg | age edB | gfg edB | BAA A2B |
GAB BAB | GBd def | gfe def | gdB G2:|
